public/images/logo-kv.svg

<svg fill="none" height="90" viewBox="0 0 256 90" width="256" xmlns="http://www.w3.org/2000/svg" xmlns:xlink="http://www.w3.org/1999/xlink"><clipPath id="a"><path d="m0 0h256v90h-256z"/></clipPath><g clip-path="url(#a)"><g stroke="#fff" stroke-width="4"><path d="m2 89v-90"/><path d="m254 91v-90"/><path d="m0 88h256"/><path d="m0 2h256"/></g><path d="m120.8 35v-28h3.64v15.76l15-15.76h2l-10.16 10.84 12.48 17.16h-4.16l-10.64-14.68-4.52 4.84v9.84zm31.545-28v28h-3.4v-28zm24.967 18.88h-15.2c0 1.6267.24 2.96.72 4s1.08 1.8533 1.8 2.44 1.493 1 2.32 1.24c.853.2133 1.653.32 2.4.32.666 0 1.266-.0667 1.8-.2.56-.16 1.093-.3733 1.6-.64.506-.2667 1-.6 1.48-1 .506-.4 1.04-.84 1.6-1.32l1.28 1.28c-1.067 1.12-2.32 1.9867-3.76 2.6-1.44.5867-3.014.88-4.72.88-1.76 0-3.294-.2933-4.6-.88-1.28-.6133-2.347-1.4133-3.2-2.4-.827-1.0133-1.454-2.1467-1.88-3.4-.4-1.28-.6-2.5867-.6-3.92 0-1.6.24-3.0267.72-4.28.48-1.28 1.146-2.36 2-3.24.853-.9067 1.853-1.5867 3-2.04 1.146-.48 2.4-.72 3.76-.72 1.28 0 2.493.2133 3.64.64 1.146.4267 2.146 1.0667 3 1.92.88.8533 1.573 1.9333 2.08 3.24.506 1.3067.76 2.8533.76 4.64zm-15.2-1.6h11.72c0-2.5867-.534-4.6133-1.6-6.08-1.04-1.4933-2.507-2.24-4.4-2.24-.987 0-1.84.24-2.56.72-.72.4533-1.32 1.0667-1.8 1.84-.454.7733-.8 1.6667-1.04 2.68-.214.9867-.32 2.0133-.32 3.08zm18.008-9.28h3.52l6.68 16.04h.24l6.48-16.04h1.88l-8.08 20h-2.4zm40.551 10.88h-15.2c0 1.6267.24 2.96.72 4s1.08 1.8533 1.8 2.44 1.493 1 2.32 1.24c.853.2133 1.653.32 2.4.32.667 0 1.267-.0667 1.8-.2.56-.16 1.093-.3733 1.6-.64s1-.6 1.48-1c.507-.4 1.04-.84 1.6-1.32l1.28 1.28c-1.067 1.12-2.32 1.9867-3.76 2.6-1.44.5867-3.013.88-4.72.88-1.76 0-3.293-.2933-4.6-.88-1.28-.6133-2.347-1.4133-3.2-2.4-.827-1.0133-1.453-2.1467-1.88-3.4-.4-1.28-.6-2.5867-.6-3.92 0-1.6.24-3.0267.72-4.28.48-1.28 1.147-2.36 2-3.24.853-.9067 1.853-1.5867 3-2.04 1.147-.48 2.4-.72 3.76-.72 1.28 0 2.493.2133 3.64.64s2.147 1.0667 3 1.92c.88.8533 1.573 1.9333 2.08 3.24s.76 2.8533.76 4.64zm-15.2-1.6h11.72c0-2.5867-.533-4.6133-1.6-6.08-1.04-1.4933-2.507-2.24-4.4-2.24-.987 0-1.84.24-2.56.72-.72.4533-1.32 1.0667-1.8 1.84-.453.7733-.8 1.6667-1.04 2.68-.213.9867-.32 2.0133-.32 3.08zm20.409-9.28h3.4v3.2h.24c.48-1.2 1.093-2.1067 1.84-2.72.746-.6133 1.68-.92 2.8-.92.133 0 .333.0267.6.08.293.0267.6.1067.92.24.346.1067.68.2667 1 .48.346.2133.64.48.88.8l-1.36 2.48c-.24-.3467-.627-.72-1.16-1.12-.507-.4-1.067-.6-1.68-.6-.454 0-.92.1067-1.4.32s-.92.56-1.32 1.04-.734 1.1067-1 1.88c-.24.7467-.36 1.6667-.36 2.76v12.08h-3.4zm-108.68 33h4.32l9.6 23.04h.16l9.32-23.04h2.08l-11.36 28h-2.4zm31.171 8h3.4v20h-3.4zm-.48-6.32c0-.5867.213-1.0933.64-1.52.426-.4267.933-.64 1.52-.64.586 0 1.093.2133 1.52.64.426.4267.64.9333.64 1.52s-.214 1.0933-.64 1.52c-.427.4267-.934.64-1.52.64-.587 0-1.094-.2133-1.52-.64-.427-.4267-.64-.9333-.64-1.52zm15.704-1.68v28h-3.4v-28zm11.407 0v28h-3.4v-28zm14.566 7.56c1.946 0 3.453.28 4.52.84 1.066.5333 1.84 1.24 2.32 2.12.506.88.8 1.8933.88 3.04s.12 2.32.12 3.52v10.92h-3.24v-1.96c-.774.7467-1.76 1.3467-2.96 1.8-1.2.4267-2.4.64-3.6.64-1.147 0-2.16-.2-3.04-.6s-1.614-.92-2.2-1.56c-.587-.64-1.027-1.36-1.32-2.16-.294-.8-.44-1.6133-.44-2.44 0-.8533.16-1.7067.48-2.56s.8-1.6133 1.44-2.28c.64-.6933 1.426-1.2533 2.36-1.68.933-.4267 2-.64 3.2-.64s2.333.24 3.4.72c1.093.4533 1.986 1.1067 2.68 1.96v-1.72c0-2.1867-.334-3.8133-1-4.88-.64-1.0667-1.827-1.6-3.56-1.6-.747 0-1.4.0933-1.96.28s-1.067.4533-1.52.8c-.427.32-.827.7333-1.2 1.24-.374.48-.747 1.0267-1.12 1.64l-2.08-2.08c.373-.4.76-.8 1.16-1.2.426-.4.933-.76 1.52-1.08.613-.32 1.333-.5733 2.16-.76.826-.2133 1.826-.32 3-.32zm4.6 12.52c-.134-.32-.334-.6933-.6-1.12-.24-.4267-.56-.84-.96-1.24s-.88-.7333-1.44-1c-.56-.2933-1.227-.44-2-.44-.774 0-1.48.16-2.12.48-.64.2933-1.187.6933-1.64 1.2-.427.48-.76 1.0533-1 1.72s-.36 1.36-.36 2.08c0 .8533.146 1.6.44 2.24.32.6133.72 1.1467 1.2 1.6.48.4267 1.013.7467 1.6.96.586.2133 1.146.32 1.68.32.506 0 1.013-.0933 1.52-.28.533-.1867 1.026-.44 1.48-.76.48-.3467.906-.7467 1.28-1.2.373-.4533.68-.9467.92-1.48zm23.921 9.6v-4.88h-.16c-.453 1.28-1.24 2.2133-2.36 2.8-1.093.5867-2.386.88-3.88.88-1.36 0-2.6-.24-3.72-.72-1.093-.5067-2.04-1.2133-2.84-2.12-.8-.9333-1.426-2.04-1.88-3.32-.426-1.3067-.64-2.76-.64-4.36 0-1.5733.214-3 .64-4.28.454-1.28 1.08-2.3733 1.88-3.28s1.76-1.6 2.88-2.08c1.12-.5067 2.36-.76 3.72-.76 1.707 0 3.08.32 4.12.96 1.067.6133 1.76 1.48 2.08 2.6h.16v-3.12h3.4v19.64c0 1.3333-.133 2.6133-.4 3.84-.24 1.2533-.706 2.36-1.4 3.32-.693.96-1.666 1.72-2.92 2.28-1.253.5867-2.893.88-4.92.88-1.093 0-2.066-.1467-2.92-.44-.853-.2667-1.586-.6-2.2-1-.613-.3733-1.12-.76-1.52-1.16-.4-.3733-.693-.68-.88-.92l2.2-2c.72 1.2 1.507 2.16 2.36 2.88.88.72 2.027 1.08 3.44 1.08.8 0 1.547-.12 2.24-.36.72-.24 1.334-.6267 1.84-1.16.534-.5333.947-1.2267 1.24-2.08.294-.8533.44-1.8933.44-3.12zm0-10.2v-2.96c0-.9067-.12-1.7867-.36-2.64s-.6-1.6-1.08-2.24c-.453-.6667-1.026-1.1867-1.72-1.56-.693-.4-1.48-.6-2.36-.6-.4 0-.96.0933-1.68.28-.693.16-1.386.5333-2.08 1.12-.666.5867-1.253 1.44-1.76 2.56-.506 1.0933-.76 2.5733-.76 4.44 0 1.76.2 3.2.6 4.32.427 1.12.947 1.9867 1.56 2.6.64.6133 1.32 1.04 2.04 1.28.747.2133 1.44.32 2.08.32.72 0 1.414-.1467 2.08-.44.667-.32 1.254-.7733 1.76-1.36.507-.5867.907-1.3067 1.2-2.16.32-.8533.48-1.84.48-2.96zm27.543-.6h-15.2c0 1.6267.24 2.96.72 4s1.08 1.8533 1.8 2.44 1.493 1 2.32 1.24c.853.2133 1.653.32 2.4.32.667 0 1.267-.0667 1.8-.2.56-.16 1.093-.3733 1.6-.64s1-.6 1.48-1c.507-.4 1.04-.84 1.6-1.32l1.28 1.28c-1.067 1.12-2.32 1.9867-3.76 2.6-1.44.5867-3.013.88-4.72.88-1.76 0-3.293-.2933-4.6-.88-1.28-.6133-2.347-1.4133-3.2-2.4-.827-1.0133-1.453-2.1467-1.88-3.4-.4-1.28-.6-2.5867-.6-3.92 0-1.6.24-3.0267.72-4.28.48-1.28 1.147-2.36 2-3.24.853-.9067 1.853-1.5867 3-2.04 1.147-.48 2.4-.72 3.76-.72 1.28 0 2.493.2133 3.64.64s2.147 1.0667 3 1.92c.88.8533 1.573 1.9333 2.08 3.24s.76 2.8533.76 4.64zm-15.2-1.6h11.72c0-2.5867-.533-4.6133-1.6-6.08-1.04-1.4933-2.507-2.24-4.4-2.24-.987 0-1.84.24-2.56.72-.72.4533-1.32 1.0667-1.8 1.84-.453.7733-.8 1.6667-1.04 2.68-.213.9867-.32 2.0133-.32 3.08z" fill="#fff"/><path d="m11.68 68v-44.8h5.824v25.216l24-25.216h3.2l-16.256 17.344 19.968 27.456h-6.656l-17.024-23.488-7.232 7.744v15.744z" fill="#e08631"/><path d="m52.2325 23.2h6.912l15.36 36.864h.256l14.912-36.864h3.328l-18.176 44.8h-3.84z" fill="#fff"/></g></svg>

<svg width="256" height="90" viewBox="0 0 256 90" fill="none" xmlns="http://www.w3.org/2000/svg">
<g clip-path="url(#clip0_26701_2)">
<line x1="2" y1="89" x2="2" y2="-1" stroke="white" stroke-width="4"/>
<line x1="254" y1="91" x2="254" y2="1" stroke="white" stroke-width="4"/>
<line y1="88" x2="256" y2="88" stroke="white" stroke-width="4"/>
<line y1="2" x2="256" y2="2" stroke="white" stroke-width="4"/>
<path d="M120.8 35V7H124.44V22.76L139.44 7H141.44L131.28 17.84L143.76 35H139.6L128.96 20.32L124.44 25.16V35H120.8ZM152.345 7V35H148.945V7H152.345ZM177.312 25.88H162.112C162.112 27.5067 162.352 28.84 162.832 29.88C163.312 30.92 163.912 31.7333 164.632 32.32C165.352 32.9067 166.125 33.32 166.952 33.56C167.805 33.7733 168.605 33.88 169.352 33.88C170.018 33.88 170.618 33.8133 171.152 33.68C171.712 33.52 172.245 33.3067 172.752 33.04C173.258 32.7733 173.752 32.44 174.232 32.04C174.738 31.64 175.272 31.2 175.832 30.72L177.112 32C176.045 33.12 174.792 33.9867 173.352 34.6C171.912 35.1867 170.338 35.48 168.632 35.48C166.872 35.48 165.338 35.1867 164.032 34.6C162.752 33.9867 161.685 33.1867 160.832 32.2C160.005 31.1867 159.378 30.0533 158.952 28.8C158.552 27.52 158.352 26.2133 158.352 24.88C158.352 23.28 158.592 21.8533 159.072 20.6C159.552 19.32 160.218 18.24 161.072 17.36C161.925 16.4533 162.925 15.7733 164.072 15.32C165.218 14.84 166.472 14.6 167.832 14.6C169.112 14.6 170.325 14.8133 171.472 15.24C172.618 15.6667 173.618 16.3067 174.472 17.16C175.352 18.0133 176.045 19.0933 176.552 20.4C177.058 21.7067 177.312 23.2533 177.312 25.04V25.88ZM162.112 24.28H173.832C173.832 21.6933 173.298 19.6667 172.232 18.2C171.192 16.7067 169.725 15.96 167.832 15.96C166.845 15.96 165.992 16.2 165.272 16.68C164.552 17.1333 163.952 17.7467 163.472 18.52C163.018 19.2933 162.672 20.1867 162.432 21.2C162.218 22.1867 162.112 23.2133 162.112 24.28ZM180.12 15H183.64L190.32 31.04H190.56L197.04 15H198.92L190.84 35H188.44L180.12 15ZM220.671 25.88H205.471C205.471 27.5067 205.711 28.84 206.191 29.88C206.671 30.92 207.271 31.7333 207.991 32.32C208.711 32.9067 209.484 33.32 210.311 33.56C211.164 33.7733 211.964 33.88 212.711 33.88C213.378 33.88 213.978 33.8133 214.511 33.68C215.071 33.52 215.604 33.3067 216.111 33.04C216.618 32.7733 217.111 32.44 217.591 32.04C218.098 31.64 218.631 31.2 219.191 30.72L220.471 32C219.404 33.12 218.151 33.9867 216.711 34.6C215.271 35.1867 213.698 35.48 211.991 35.48C210.231 35.48 208.698 35.1867 207.391 34.6C206.111 33.9867 205.044 33.1867 204.191 32.2C203.364 31.1867 202.738 30.0533 202.311 28.8C201.911 27.52 201.711 26.2133 201.711 24.88C201.711 23.28 201.951 21.8533 202.431 20.6C202.911 19.32 203.578 18.24 204.431 17.36C205.284 16.4533 206.284 15.7733 207.431 15.32C208.578 14.84 209.831 14.6 211.191 14.6C212.471 14.6 213.684 14.8133 214.831 15.24C215.978 15.6667 216.978 16.3067 217.831 17.16C218.711 18.0133 219.404 19.0933 219.911 20.4C220.418 21.7067 220.671 23.2533 220.671 25.04V25.88ZM205.471 24.28H217.191C217.191 21.6933 216.658 19.6667 215.591 18.2C214.551 16.7067 213.084 15.96 211.191 15.96C210.204 15.96 209.351 16.2 208.631 16.68C207.911 17.1333 207.311 17.7467 206.831 18.52C206.378 19.2933 206.031 20.1867 205.791 21.2C205.578 22.1867 205.471 23.2133 205.471 24.28ZM225.88 15H229.28V18.2H229.52C230 17 230.613 16.0933 231.36 15.48C232.106 14.8667 233.04 14.56 234.16 14.56C234.293 14.56 234.493 14.5867 234.76 14.64C235.053 14.6667 235.36 14.7467 235.68 14.88C236.026 14.9867 236.36 15.1467 236.68 15.36C237.026 15.5733 237.32 15.84 237.56 16.16L236.2 18.64C235.96 18.2933 235.573 17.92 235.04 17.52C234.533 17.12 233.973 16.92 233.36 16.92C232.906 16.92 232.44 17.0267 231.96 17.24C231.48 17.4533 231.04 17.8 230.64 18.28C230.24 18.76 229.906 19.3867 229.64 20.16C229.4 20.9067 229.28 21.8267 229.28 22.92V35H225.88V15ZM117.2 48H121.52L131.12 71.04H131.28L140.6 48H142.68L131.32 76H128.92L117.2 48ZM148.371 56H151.771V76H148.371V56ZM147.891 49.68C147.891 49.0933 148.104 48.5867 148.531 48.16C148.957 47.7333 149.464 47.52 150.051 47.52C150.637 47.52 151.144 47.7333 151.571 48.16C151.997 48.5867 152.211 49.0933 152.211 49.68C152.211 50.2667 151.997 50.7733 151.571 51.2C151.144 51.6267 150.637 51.84 150.051 51.84C149.464 51.84 148.957 51.6267 148.531 51.2C148.104 50.7733 147.891 50.2667 147.891 49.68ZM163.595 48V76H160.195V48H163.595ZM175.002 48V76H171.602V48H175.002ZM189.568 55.56C191.514 55.56 193.021 55.84 194.088 56.4C195.154 56.9333 195.928 57.64 196.408 58.52C196.914 59.4 197.208 60.4133 197.288 61.56C197.368 62.7067 197.408 63.88 197.408 65.08V76H194.168V74.04C193.394 74.7867 192.408 75.3867 191.208 75.84C190.008 76.2667 188.808 76.48 187.608 76.48C186.461 76.48 185.448 76.28 184.568 75.88C183.688 75.48 182.954 74.96 182.368 74.32C181.781 73.68 181.341 72.96 181.048 72.16C180.754 71.36 180.608 70.5467 180.608 69.72C180.608 68.8667 180.768 68.0133 181.088 67.16C181.408 66.3067 181.888 65.5467 182.528 64.88C183.168 64.1867 183.954 63.6267 184.888 63.2C185.821 62.7733 186.888 62.56 188.088 62.56C189.288 62.56 190.421 62.8 191.488 63.28C192.581 63.7333 193.474 64.3867 194.168 65.24V63.52C194.168 61.3333 193.834 59.7067 193.168 58.64C192.528 57.5733 191.341 57.04 189.608 57.04C188.861 57.04 188.208 57.1333 187.648 57.32C187.088 57.5067 186.581 57.7733 186.128 58.12C185.701 58.44 185.301 58.8533 184.928 59.36C184.554 59.84 184.181 60.3867 183.808 61L181.728 58.92C182.101 58.52 182.488 58.12 182.888 57.72C183.314 57.32 183.821 56.96 184.408 56.64C185.021 56.32 185.741 56.0667 186.568 55.88C187.394 55.6667 188.394 55.56 189.568 55.56ZM194.168 68.08C194.034 67.76 193.834 67.3867 193.568 66.96C193.328 66.5333 193.008 66.12 192.608 65.72C192.208 65.32 191.728 64.9867 191.168 64.72C190.608 64.4267 189.941 64.28 189.168 64.28C188.394 64.28 187.688 64.44 187.048 64.76C186.408 65.0533 185.861 65.4533 185.408 65.96C184.981 66.44 184.648 67.0133 184.408 67.68C184.168 68.3467 184.048 69.04 184.048 69.76C184.048 70.6133 184.194 71.36 184.488 72C184.808 72.6133 185.208 73.1467 185.688 73.6C186.168 74.0267 186.701 74.3467 187.288 74.56C187.874 74.7733 188.434 74.88 188.968 74.88C189.474 74.88 189.981 74.7867 190.488 74.6C191.021 74.4133 191.514 74.16 191.968 73.84C192.448 73.4933 192.874 73.0933 193.248 72.64C193.621 72.1867 193.928 71.6933 194.168 71.16V68.08ZM218.089 77.68V72.8H217.929C217.476 74.08 216.689 75.0133 215.569 75.6C214.476 76.1867 213.183 76.48 211.689 76.48C210.329 76.48 209.089 76.24 207.969 75.76C206.876 75.2533 205.929 74.5467 205.129 73.64C204.329 72.7067 203.703 71.6 203.249 70.32C202.823 69.0133 202.609 67.56 202.609 65.96C202.609 64.3867 202.823 62.96 203.249 61.68C203.703 60.4 204.329 59.3067 205.129 58.4C205.929 57.4933 206.889 56.8 208.009 56.32C209.129 55.8133 210.369 55.56 211.729 55.56C213.436 55.56 214.809 55.88 215.849 56.52C216.916 57.1333 217.609 58 217.929 59.12H218.089V56H221.489V75.64C221.489 76.9733 221.356 78.2533 221.089 79.48C220.849 80.7333 220.383 81.84 219.689 82.8C218.996 83.76 218.023 84.52 216.769 85.08C215.516 85.6667 213.876 85.96 211.849 85.96C210.756 85.96 209.783 85.8133 208.929 85.52C208.076 85.2533 207.343 84.92 206.729 84.52C206.116 84.1467 205.609 83.76 205.209 83.36C204.809 82.9867 204.516 82.68 204.329 82.44L206.529 80.44C207.249 81.64 208.036 82.6 208.889 83.32C209.769 84.04 210.916 84.4 212.329 84.4C213.129 84.4 213.876 84.28 214.569 84.04C215.289 83.8 215.903 83.4133 216.409 82.88C216.943 82.3467 217.356 81.6533 217.649 80.8C217.943 79.9467 218.089 78.9067 218.089 77.68ZM218.089 67.48V64.52C218.089 63.6133 217.969 62.7333 217.729 61.88C217.489 61.0267 217.129 60.28 216.649 59.64C216.196 58.9733 215.623 58.4533 214.929 58.08C214.236 57.68 213.449 57.48 212.569 57.48C212.169 57.48 211.609 57.5733 210.889 57.76C210.196 57.92 209.503 58.2933 208.809 58.88C208.143 59.4667 207.556 60.32 207.049 61.44C206.543 62.5333 206.289 64.0133 206.289 65.88C206.289 67.64 206.489 69.08 206.889 70.2C207.316 71.32 207.836 72.1867 208.449 72.8C209.089 73.4133 209.769 73.84 210.489 74.08C211.236 74.2933 211.929 74.4 212.569 74.4C213.289 74.4 213.983 74.2533 214.649 73.96C215.316 73.64 215.903 73.1867 216.409 72.6C216.916 72.0133 217.316 71.2933 217.609 70.44C217.929 69.5867 218.089 68.6 218.089 67.48ZM245.632 66.88H230.432C230.432 68.5067 230.672 69.84 231.152 70.88C231.632 71.92 232.232 72.7333 232.952 73.32C233.672 73.9067 234.445 74.32 235.272 74.56C236.125 74.7733 236.925 74.88 237.672 74.88C238.339 74.88 238.939 74.8133 239.472 74.68C240.032 74.52 240.565 74.3067 241.072 74.04C241.579 73.7733 242.072 73.44 242.552 73.04C243.059 72.64 243.592 72.2 244.152 71.72L245.432 73C244.365 74.12 243.112 74.9867 241.672 75.6C240.232 76.1867 238.659 76.48 236.952 76.48C235.192 76.48 233.659 76.1867 232.352 75.6C231.072 74.9867 230.005 74.1867 229.152 73.2C228.325 72.1867 227.699 71.0533 227.272 69.8C226.872 68.52 226.672 67.2133 226.672 65.88C226.672 64.28 226.912 62.8533 227.392 61.6C227.872 60.32 228.539 59.24 229.392 58.36C230.245 57.4533 231.245 56.7733 232.392 56.32C233.539 55.84 234.792 55.6 236.152 55.6C237.432 55.6 238.645 55.8133 239.792 56.24C240.939 56.6667 241.939 57.3067 242.792 58.16C243.672 59.0133 244.365 60.0933 244.872 61.4C245.379 62.7067 245.632 64.2533 245.632 66.04V66.88ZM230.432 65.28H242.152C242.152 62.6933 241.619 60.6667 240.552 59.2C239.512 57.7067 238.045 56.96 236.152 56.96C235.165 56.96 234.312 57.2 233.592 57.68C232.872 58.1333 232.272 58.7467 231.792 59.52C231.339 60.2933 230.992 61.1867 230.752 62.2C230.539 63.1867 230.432 64.2133 230.432 65.28Z" fill="white"/>
<path d="M11.68 68V23.2H17.504V48.416L41.504 23.2H44.704L28.448 40.544L48.416 68H41.76L24.736 44.512L17.504 52.256V68H11.68Z" fill="#E08631"/>
<path d="M52.2325 23.2H59.1445L74.5045 60.064H74.7605L89.6725 23.2H93.0005L74.8245 68H70.9845L52.2325 23.2Z" fill="white"/>
</g>
<defs>
<clipPath id="clip0_26701_2">
<rect width="256" height="90" fill="white"/>
</clipPath>
</defs>
</svg>
